X: 1
T: Tailor's Thimble, The
M: 4/4
L: 1/8
R: reel
S: Danu: Think Before You Think
K: Bmin
fedc BAFA|~d3e fdef|dBcB BAFA|BdcA ~B3c|
dBBA ~F3A|~d3e faef|dBcB BAFA|BdcA ~B3c||
d2Bc dcde|f2bf afeg|fdBc ~d3e|fbaf edeg|
fdBc dcde|f2bf afef|bf~f2 af~f2|bfaf edeg||
